X: 919
T: The New Cloak.
B:O'Neill's 919
Z:Transcribed by Tom Keays (htkeays@mailbox.syr.edu)
Z:abc 1.6
M:6/8
R:Jig
L:1/8
K:Em
D | E>FA B>AF | dAF AFD | E>FA B>AF | F>EE E2D |
E>FA B>AF | dAF AFD | dfe dAF | F>EE E2 :|
|| d | dBd efe | dBd e2(d/e/) | fed dcB | A>Bd FED |
E>FA B>AF | dAF AFD | dfe dAF | F>EE E2 :|


